src/symbols/alphanum/1F191.svg

<svg id="emoji" viewBox="0 0 72 72" xmlns="http://www.w3.org/2000/svg">
  <g id="grid">
    <path fill="#b3b3b3" d="M68,4V68H4V4H68m4-4H0V72H72V0Z"/>
    <path fill="none" stroke="#00a5ff" stroke-miterlimit="10" stroke-width="0.1" d="M12.923,10.9583H59.0769A1.9231,1.9231,0,0,1,61,12.8814V59.0352a1.9231,1.9231,0,0,1-1.9231,1.9231H12.9231A1.9231,1.9231,0,0,1,11,59.0352V12.8813A1.923,1.923,0,0,1,12.923,10.9583Z"/>
    <rect x="16" y="4" rx="2.2537" width="40" height="64" fill="none" stroke="#00a5ff" stroke-miterlimit="10" stroke-width="0.1"/>
    <rect x="16" y="4" rx="2.2537" width="40" height="64" transform="translate(72) rotate(90)" fill="none" stroke="#00a5ff" stroke-miterlimit="10" stroke-width="0.1"/>
    <circle cx="36" cy="36" r="29" fill="none" stroke="#00a5ff" stroke-miterlimit="10" stroke-width="0.1"/>
  </g>
  <g id="line-supplement">
    <g id="CL_Button">
      <path fill="none" stroke="#000" stroke-linejoin="round" stroke-width="2" d="M59.0349,60h-46.07A.9679.9679,0,0,1,12,59.0349v-46.07A.9679.9679,0,0,1,12.9651,12h46.07A.9679.9679,0,0,1,60,12.9651v46.07A.9679.9679,0,0,1,59.0349,60Z"/>
      <path fill="none" stroke="#000" stroke-linecap="round" stroke-linejoin="round" stroke-width="2" d="M32.07,42.5784a5.3144,5.3144,0,0,1-3.5383,1.3423h0a5.3343,5.3343,0,0,1-5.3342-5.3342V34.3192a5.3343,5.3343,0,0,1,5.3342-5.3342h0A5.3131,5.3131,0,0,1,32.07,30.3275"/>
      <polyline fill="none" stroke="#000" stroke-linecap="round" stroke-linejoin="round" stroke-width="2" points="42.401 29.049 42.401 43.985 48.802 43.985"/>
    </g>
  </g>
  <g id="color">
    <g id="color-2">
      <path fill="#d22f27" d="M59.0349,60.4528h-46.07A.9679.9679,0,0,1,12,59.4877v-46.07a.9679.9679,0,0,1,.9651-.9651h46.07A.9679.9679,0,0,1,60,13.4179v46.07A.9679.9679,0,0,1,59.0349,60.4528Z"/>
    </g>
  </g>
  <g id="line"/>
  <g id="color-foreground">
    <path fill="none" stroke="#fff" stroke-linejoin="round" stroke-width="2" d="M59.0349,60h-46.07A.9679.9679,0,0,1,12,59.0349v-46.07A.9679.9679,0,0,1,12.9651,12h46.07A.9679.9679,0,0,1,60,12.9651v46.07A.9679.9679,0,0,1,59.0349,60Z"/>
    <path fill="none" stroke="#fff" stroke-linecap="round" stroke-linejoin="round" stroke-width="2" d="M32.07,42.5784a5.3144,5.3144,0,0,1-3.5383,1.3423h0a5.3343,5.3343,0,0,1-5.3342-5.3342V34.3192a5.3343,5.3343,0,0,1,5.3342-5.3342h0A5.3131,5.3131,0,0,1,32.07,30.3275"/>
    <polyline fill="none" stroke="#fff" stroke-linecap="round" stroke-linejoin="round" stroke-width="2" points="42.401 29.049 42.401 43.985 48.802 43.985"/>
  </g>
</svg>

<svg viewBox="0 0 72 72" xmlns="http://www.w3.org/2000/svg"><path fill="#b3b3b3" d="M68 4v64H4V4h64m4-4H0v72h72V0z"/><path fill="none" stroke="#00a5ff" stroke-miterlimit="10" stroke-width=".1" d="M12.923 10.958h46.154A1.923 1.923 0 0161 12.881v46.154a1.923 1.923 0 01-1.923 1.923H12.923A1.923 1.923 0 0111 59.035V12.881a1.923 1.923 0 011.923-1.923z"/><rect x="16" y="4" rx="2.254" width="40" height="64" fill="none" stroke="#00a5ff" stroke-miterlimit="10" stroke-width=".1"/><rect x="16" y="4" rx="2.254" width="40" height="64" transform="rotate(90 36 36)" fill="none" stroke="#00a5ff" stroke-miterlimit="10" stroke-width=".1"/><circle cx="36" cy="36" r="29" fill="none" stroke="#00a5ff" stroke-miterlimit="10" stroke-width=".1"/><g stroke-linecap="round" stroke-miterlimit="10" stroke-width="6" stroke="#fff" fill="none" stroke-linejoin="round"><path d="M59.035 60h-46.07a.968.968 0 01-.965-.965v-46.07a.968.968 0 01.965-.965h46.07a.968.968 0 01.965.965v46.07a.968.968 0 01-.965.965z"/><path d="M32.07 42.578a5.314 5.314 0 01-3.538 1.343h0a5.334 5.334 0 01-5.334-5.334v-4.268a5.334 5.334 0 015.334-5.334h0a5.313 5.313 0 013.538 1.343m10.331-1.279v14.936h6.401"/></g><g fill="none" stroke="#000" stroke-linejoin="round" stroke-width="2"><path d="M59.035 60h-46.07a.968.968 0 01-.965-.965v-46.07a.968.968 0 01.965-.965h46.07a.968.968 0 01.965.965v46.07a.968.968 0 01-.965.965z"/><path stroke-linecap="round" d="M32.07 42.578a5.314 5.314 0 01-3.538 1.343h0a5.334 5.334 0 01-5.334-5.334v-4.268a5.334 5.334 0 015.334-5.334h0a5.313 5.313 0 013.538 1.343m10.331-1.279v14.936h6.401"/></g><path fill="#d22f27" d="M59.035 60.453h-46.07a.968.968 0 01-.965-.965v-46.07a.968.968 0 01.965-.965h46.07a.968.968 0 01.965.965v46.07a.968.968 0 01-.965.965z"/><g fill="none" stroke="#fff" stroke-linejoin="round" stroke-width="2"><path d="M59.035 60h-46.07a.968.968 0 01-.965-.965v-46.07a.968.968 0 01.965-.965h46.07a.968.968 0 01.965.965v46.07a.968.968 0 01-.965.965z"/><path stroke-linecap="round" d="M32.07 42.578a5.314 5.314 0 01-3.538 1.343h0a5.334 5.334 0 01-5.334-5.334v-4.268a5.334 5.334 0 015.334-5.334h0a5.313 5.313 0 013.538 1.343m10.331-1.279v14.936h6.401"/></g></svg>
